X:1
T: Sonata I
C: J.S. Bach
M: C
Q:"Adagio"
L: 1/8
K:C
V:1 clef=treble name="Violino I"      sname="Vl. I"
V:2 clef=treble name="Violino II"     sname="Vl. II"  space=+10
V:3 clef=bass   name="Violoncello\\<Vla. da Gamba>" sname="Vc."
[V:1]  g8-|gf/e/ {e}f>g (a/f/d/f/) (A//=B//A//B//TB3//A///B///)|
[V:2] z8 | z8 |
[V:3] z cec gGBG | Aa- a/_b/a/g/ f3 g/f/ |
%
[V:1] c/gf/ E/ed/ c/c'b/ A/ag/ | ^f/e/d- d/(c/B/A/) G/(e/c/e/) Aa| d2-d/g/_b/a/ a3 g/=f/|
[V:2] c8- | cB/A/ {A}B>c (e/c/A/c/) (E//^F//E//F//TF3//E///F///) | G/(D/G/A/) _B/G/g/e/ ^cA d2-|
[V:3] edcB AG^FE | D^FGg c3d/c/| _BG g2-gf/e/ f>g|
%
[V:1] Te/>d/e- e/(a/f/d/) TB/>A/B- B/(A//B//c/)d/| TG/>F/G- G/(c/A/F/) DTd/>c/ d/g/B/d/|Tc/>B/c2 B A/ag/ fA|
[V:2] dT=c/>=B/ c>f d>e AF-| FTE/>D/ Ec'/-a/ Tf/>e/f- f/d/g/f/ | Te/>d/e/g/- g/fe/ d^c d/FE/|
[V:3] aA a2-a^g a>b| c'c c'2-c'b/>a/ b2-| b>e ag fed=c-|
%
[V:1] G/gf/ E/ed/ c/c'b/ A/ag/|^f/a/g/f/ g2-g>e' f2-|f/e^d/ e2-e>c' =d2-|
[V:2] DG, G/gf/ E/ed/ =c/c'B/|ad'- d'/c'/d'/e'/ Ta/>g/a- a/c'/b/^f/|(g//a//g//a//Ta3//g///a///) b/a/b/c'/ T^f/>g/f- f/a/g/d/|
[V:3] cB/G/ cC zgac- |cb/>a/ b>c' d'c'd'd| e^fga babB|
%
P:
Q:"Alla breve"
[V:1] [L:1/4] c4|B4|_B4|A2zd|=BGc2-|cd/e/ f/a/g/f/|e/d/c2B|e3^f|gG/A/Bc|
[V:2] [L:1/4] zC/D/EF|GDG2-|GF/E/DE|FCF2-|FE/D/EF/G/|AFDB|cgG2-|GA/B/ c/e/d/c/|Bd2e|
[V:3] [L:1/4] z4|z4|z4|z4|z4|z4|z4|z4|g4|

